X:40
T:R�gaire Dubh/ Girl of the Big House
T:R�gaire Dubh, An
M:6/8
K:D
|:d|cAA BGG|cAA AdB|c2A BAG|AFD DdB|
cAA BGG|cAA AGF|G3 B[dG]B|AFD D2:|
e|!turn!f3!turn! g3|afd cBA|f3 gfg|afd de/f/g|
agf gfe|fed {e=f}e2d|cAA BGG|AFD D2|
T:Girl of the Big House, The
K:G
AG|F{G}FD DAD|ADA GEA|DD/D/D AGE|F/G/AD DAG|
!turn!F3!turn!G3|AGA cde|dcA GEA|D{A}D{G}D DAG||
F{B}AD DAG|ADA GEA|DF/G/A AGE|FAD DAG|
FDD GDD|ADD cde|dcA GEA|D{A}D{G}D DAB|:
c{d}cA AGF|G3 {A}GFG|A{B}[dA]B cAG|A[dD][^cA] d2e|
g/f/ed =cAG|A{B}[AD]F [cA][eE][dAD]|dcA GEA|D{A}D{G}D d2 z:|

